images/clouds.svg

<svg width="521" height="309" viewBox="0 0 521 309" fill="none" xmlns="http://www.w3.org/2000/svg">
<path opacity="0.2" d="M65.2658 91.7566C92.3316 81.5097 121.867 86.8373 145.608 103.442C154.474 59.9854 182.259 23.295 223.499 7.66216C291.047 -17.9259 369.075 22.7505 397.794 98.523C405.202 118.045 408.585 137.994 408.41 157.302C411.89 155.143 415.624 153.277 419.571 151.78C456.475 137.799 499.115 160.024 514.806 201.42C530.497 242.815 513.834 289.228 476.385 301.711C456.378 308.38 424.782 308.38 424.782 308.38C424.782 308.38 117.511 284.27 108.023 284.308C70.1657 284.464 32.9503 258.429 17.2592 217.052C-2.34021 165.332 19.1452 109.237 65.2658 91.7566Z" fill="#EB8382"/>
<path d="M56.1271 91.7565C83.1929 81.5096 112.728 86.8372 136.469 103.442C145.335 59.9854 173.12 23.2949 214.361 7.6621C281.908 -17.9259 359.936 22.7505 388.655 98.5229C396.063 118.045 399.446 137.994 399.271 157.302C402.752 155.143 406.485 153.277 410.432 151.779C447.336 137.799 489.977 160.024 505.668 201.42C521.359 242.815 504.151 287.731 467.247 301.711C459.43 304.666 415.643 308.38 415.643 308.38C415.643 308.38 108.373 284.27 98.884 284.308C61.027 284.464 23.8116 258.429 8.12045 217.052C-11.4789 165.332 10.0065 109.236 56.1271 91.7565Z" fill="#C9CAD6"/>
</svg>

<svg width="521" height="309" fill="none" xmlns="http://www.w3.org/2000/svg"><path opacity=".2" d="M65.266 91.757c27.066-10.247 56.601-4.92 80.342 11.685 8.866-43.457 36.651-80.147 77.891-95.78 67.548-25.588 145.576 15.088 174.295 90.861 7.408 19.522 10.791 39.471 10.616 58.779a64.72 64.72 0 0111.161-5.522c36.904-13.981 79.544 8.244 95.235 49.64 15.691 41.395-.972 87.808-38.421 100.291-20.007 6.669-51.603 6.669-51.603 6.669s-307.271-24.11-316.759-24.072c-37.857.156-75.073-25.879-90.764-67.256-19.6-51.72 1.886-107.815 48.007-125.295z" fill="#EB8382"/><path d="M56.127 91.757c27.066-10.247 56.601-4.92 80.342 11.685 8.866-43.457 36.651-80.147 77.892-95.78 67.547-25.588 145.575 15.088 174.294 90.86 7.408 19.523 10.791 39.472 10.616 58.78a64.831 64.831 0 0111.161-5.523c36.904-13.98 79.545 8.245 95.236 49.641 15.691 41.395-1.517 86.311-38.421 100.291-7.817 2.955-51.604 6.669-51.604 6.669s-307.27-24.11-316.759-24.072c-37.857.156-75.072-25.879-90.764-67.256-19.599-51.72 1.887-107.816 48.007-125.295z" fill="#C9CAD6"/></svg>
